outputs/icons/action/home_sharp.svg

<svg xmlns="http://www.w3.org/2000/svg" width="1200" height="1200" fill="none"><g clip-path="url(#a)"><path fill="#000" d="M500 1000V700h200v300h250V600h150L600 150 100 600h150v400z"/></g><defs><clipPath id="a"><path fill="#fff" d="M0 0h1200v1200H0z"/></clipPath></defs></svg>

<svg width="1200" height="1200" viewBox="0 0 1200 1200" fill="none" xmlns="http://www.w3.org/2000/svg"><g clip-path="url(#clip0_117_752)"><path d="M500 1000V700H700V1000H950V600H1100L600 150L100 600H250V1000H500Z" fill="black"/></g><defs><clipPath id="clip0_117_752"><path width="24" fill="white" d="M0 0H1200V1200H0V0z"/></clipPath></defs></svg>
